images/build/build-types/03.svg

<svg width="154" height="92" viewBox="0 0 154 92" fill="none" xmlns="http://www.w3.org/2000/svg">
<path opacity="0.1" d="M69.6421 88.2482C62.6421 97.4882 52.8887 102.108 40.3821 102.108C27.8754 102.108 18.0754 97.4882 10.9821 88.2482C3.98206 78.9149 0.482059 66.5482 0.482059 51.1482C0.482059 35.7482 3.98206 23.4282 10.9821 14.1882C18.0754 4.85485 27.8754 0.188187 40.3821 0.188187C52.8887 0.188187 62.6421 4.85485 69.6421 14.1882C76.7354 23.4282 80.2821 35.7482 80.2821 51.1482C80.2821 66.5482 76.7354 78.9149 69.6421 88.2482ZM22.8821 51.1482C22.8821 70.5615 28.7154 80.2682 40.3821 80.2682C52.0487 80.2682 57.8821 70.5615 57.8821 51.1482C57.8821 31.7349 52.0487 22.0282 40.3821 22.0282C28.7154 22.0282 22.8821 31.7349 22.8821 51.1482ZM132.167 41.9082C138.421 44.0549 143.461 47.5549 147.287 52.4082C151.114 57.1682 153.027 62.8149 153.027 69.3482C153.027 79.6149 149.574 87.6415 142.667 93.4282C135.761 99.2149 127.314 102.108 117.327 102.108C109.581 102.108 102.627 100.335 96.4674 96.7882C90.4007 93.2415 85.9207 88.0149 83.0274 81.1082L102.347 69.9082C104.774 76.8149 109.767 80.2682 117.327 80.2682C121.714 80.2682 125.027 79.2415 127.267 77.1882C129.507 75.1349 130.627 72.5215 130.627 69.3482C130.627 66.1749 129.507 63.5615 127.267 61.5082C125.027 59.4549 121.714 58.4282 117.327 58.4282H112.707L104.167 45.6882L121.947 23.1482H86.1074V2.14819H149.107V20.3482L132.167 41.9082Z" fill="#CB8734"/>
</svg>

<svg width="154" height="92" fill="none" xmlns="http://www.w3.org/2000/svg"><path opacity=".1" d="M69.642 88.248c-7 9.24-16.753 13.86-29.26 13.86-12.507 0-22.307-4.62-29.4-13.86-7-9.333-10.5-21.7-10.5-37.1 0-15.4 3.5-27.72 10.5-36.96 7.093-9.333 16.893-14 29.4-14 12.507 0 22.26 4.667 29.26 14 7.093 9.24 10.64 21.56 10.64 36.96 0 15.4-3.547 27.767-10.64 37.1zm-46.76-37.1c0 19.413 5.833 29.12 17.5 29.12s17.5-9.707 17.5-29.12-5.833-29.12-17.5-29.12-17.5 9.707-17.5 29.12zm109.285-9.24c6.254 2.147 11.294 5.647 15.12 10.5 3.827 4.76 5.74 10.407 5.74 16.94 0 10.267-3.453 18.293-10.36 24.08-6.906 5.787-15.353 8.68-25.34 8.68-7.746 0-14.7-1.773-20.86-5.32-6.066-3.546-10.546-8.773-13.44-15.68l19.32-11.2c2.427 6.907 7.42 10.36 14.98 10.36 4.387 0 7.7-1.026 9.94-3.08 2.24-2.053 3.36-4.666 3.36-7.84 0-3.173-1.12-5.786-3.36-7.84-2.24-2.053-5.553-3.08-9.94-3.08h-4.62l-8.54-12.74 17.78-22.54h-35.84v-21h63v18.2l-16.94 21.56z" fill="#CB8734"/></svg>
